X:22
T:Drumin
C: J. Scott Skinner
R: strathspey
M:C
L:1/8
Z: Jason R. Fruit <jason@starlight-glimmer>
K:D
D<d-d>B A>FD>F | G>AB>A G/F/E/D/ C<E | D<(d!tenuto!d)>B A>FD>F | G/A/B/c/ d>A FD"^[sic]"D :|
g | (f>ga).f dfAd | (g>ab).g egBe | (f>ga).f dfAd | .c/.B/.A/.^G/ Aa f<d!turn!y[dF]>=g |
!f!(f>ga)f dfDd | (g>ab).g eg Ee | f/g/.a/.g/ .f/.e/.d/.c/ .d/.c/.B/.A/ .B/.A/.G/.F/ | .G/.A/.B/.c/ .d/.B/.A/.G/ F<D [DA,]2 |]

